svgs/thin/barcode-scan.svg

<svg xmlns="http://www.w3.org/2000/svg" viewBox="0 0 640 512"><!--! Font Awesome Pro 6.6.0 by @fontawesome - https://fontawesome.com License - https://fontawesome.com/license (Commercial License) Copyright 2024 Fonticons, Inc. --><path d="M64 40l0 152 16 0L80 40c0-4.4-3.6-8-8-8s-8 3.6-8 8zm0 432c0 4.4 3.6 8 8 8s8-3.6 8-8l0-152-16 0 0 152zm64 0l0-152-16 0 0 152c0 4.4 3.6 8 8 8s8-3.6 8-8zM112 40l0 152 16 0 0-152c0-4.4-3.6-8-8-8s-8 3.6-8 8zm64 432c0 4.4 3.6 8 8 8s8-3.6 8-8l0-152-16 0 0 152zm0-432l0 152 16 0 0-152c0-4.4-3.6-8-8-8s-8 3.6-8 8zm72 432c0 4.4 3.6 8 8 8s8-3.6 8-8l0-152-16 0 0 152zm0-432l0 152 16 0 0-152c0-4.4-3.6-8-8-8s-8 3.6-8 8zm72 432c0 4.4 3.6 8 8 8s8-3.6 8-8l0-152-16 0 0 152zm0-432l0 152 16 0 0-152c0-4.4-3.6-8-8-8s-8 3.6-8 8zm48 432c0 4.4 3.6 8 8 8s8-3.6 8-8l0-152-16 0 0 152zm0-432l0 152 16 0 0-152c0-4.4-3.6-8-8-8s-8 3.6-8 8zm80 432c0 4.4 3.6 8 8 8s8-3.6 8-8l0-152-16 0 0 152zm0-432l0 152 16 0 0-152c0-4.4-3.6-8-8-8s-8 3.6-8 8zm64 432c0 4.4 3.6 8 8 8s8-3.6 8-8l0-152-16 0 0 152zm0-432l0 152 16 0 0-152c0-4.4-3.6-8-8-8s-8 3.6-8 8zm48 432c0 4.4 3.6 8 8 8s8-3.6 8-8l0-152-16 0 0 152zm0-432l0 152 16 0 0-152c0-4.4-3.6-8-8-8s-8 3.6-8 8zM0 256c0 4.4 3.6 8 8 8l624 0c4.4 0 8-3.6 8-8s-3.6-8-8-8L8 248c-4.4 0-8 3.6-8 8z"/></svg>

<svg xmlns="http://www.w3.org/2000/svg" viewBox="0 0 640 512"><!--! Font Awesome Pro 6.4.2 by @fontawesome - https://fontawesome.com License - https://fontawesome.com/license (Commercial License) Copyright 2023 Fonticons, Inc. --><path d="M64 40V192H80V40c0-4.4-3.6-8-8-8s-8 3.6-8 8zm0 432c0 4.4 3.6 8 8 8s8-3.6 8-8V320H64V472zm64 0V320H112V472c0 4.4 3.6 8 8 8s8-3.6 8-8zM112 40V192h16V40c0-4.4-3.6-8-8-8s-8 3.6-8 8zm64 432c0 4.4 3.6 8 8 8s8-3.6 8-8V320H176V472zm0-432V192h16V40c0-4.4-3.6-8-8-8s-8 3.6-8 8zm72 432c0 4.4 3.6 8 8 8s8-3.6 8-8V320H248V472zm0-432V192h16V40c0-4.4-3.6-8-8-8s-8 3.6-8 8zm72 432c0 4.4 3.6 8 8 8s8-3.6 8-8V320H320V472zm0-432V192h16V40c0-4.4-3.6-8-8-8s-8 3.6-8 8zm48 432c0 4.4 3.6 8 8 8s8-3.6 8-8V320H368V472zm0-432V192h16V40c0-4.4-3.6-8-8-8s-8 3.6-8 8zm80 432c0 4.4 3.6 8 8 8s8-3.6 8-8V320H448V472zm0-432V192h16V40c0-4.4-3.6-8-8-8s-8 3.6-8 8zm64 432c0 4.4 3.6 8 8 8s8-3.6 8-8V320H512V472zm0-432V192h16V40c0-4.4-3.6-8-8-8s-8 3.6-8 8zm48 432c0 4.4 3.6 8 8 8s8-3.6 8-8V320H560V472zm0-432V192h16V40c0-4.4-3.6-8-8-8s-8 3.6-8 8zM0 256c0 4.4 3.6 8 8 8l624 0c4.4 0 8-3.6 8-8s-3.6-8-8-8L8 248c-4.4 0-8 3.6-8 8z"/></svg>
